X: 10373
T: The STOOL OF REPENTANCE
O: Scottish.
Q: "Briskly."
%R: jig
B: W. Hamilton "Universal Tune-Book" Vol. 1 Glasgow 1844 p.37 #3
S: http://imslp.org/wiki/Hamilton's_Universal_Tune-Book_(Various)
Z: 2016 John Chambers <jc:trillian.mit.edu>
M: 6/8
L: 1/8
K: A
% - - - - - - - - - - - - - - - - - - - - - - - - -
(3(e/f/g/) |\
a2e c2e | afa edc | aff Tf2e | faf Tf2e |\
a2e c2e | afa edc | ~d2e ~f2e | fac B2A |
cAA cde | cAA edc | dBB def | dBB fed |\
cAA cde | cAA edc | d2e f2e | fa>c B2A :|
% - - - - - - - - - - - - - - - - - - - - - - - - -

%%sep 1 1 500
%%sep 1 1 500

